X:1
T: The House of Auchluncart
C:William Marshall
R:Reel
Q: 232
K:C
M:4/4
L:1/8
|:c|c2 c2 ec ge|c2 c2 dB GB|c2 c2 ec gc|Bd dc BG Gc|
c2 c2 ec ge|c2 c2 dB GB|c2 c2 ec gc|Bd dc BG Gc|
c2 Gc Ec Gc|Ec Gc dD DB|c2 Gc Ec Gc|fe dc BG GB|
c2 Gc Ec Gc|Ec Gc dD Df|af ge fd ec|Bc de dB G:|
